src/icons/solid/status/positive-check.svg

<svg width="24" height="24" viewBox="0 0 24 24" fill="none" xmlns="http://www.w3.org/2000/svg">
<g clip-path="url(#clip0_4536_420)">
<path fill-rule="evenodd" clip-rule="evenodd" d="M2 12.0056C2 6.49025 6.49025 2 12.0056 2C17.5097 2 22.0111 6.49025 22.0111 12.0056C22.0111 17.5209 17.5209 22.0111 12.0056 22.0111C6.49025 22.0111 2 17.5209 2 12.0056ZM10.9693 14.5126L15.4484 7.84961L15.4707 7.83847C15.7269 7.45964 16.2506 7.35936 16.6295 7.61563C17.0083 7.8719 17.1086 8.39557 16.8523 8.7744L11.9944 16.0056C11.7938 16.3064 11.4818 16.4847 11.1364 16.5181H11.0473C10.7242 16.5181 10.4345 16.3844 10.2116 16.1504L7.24784 12.9304C6.92472 12.585 6.947 12.0613 7.29241 11.7493C7.62667 11.4374 8.16149 11.4596 8.47346 11.7939L10.9693 14.5126Z" fill="#3C3B44"/>
</g>
<defs>
<clipPath id="clip0_4536_420">
<rect width="24" height="24" fill="white"/>
</clipPath>
</defs>
</svg>

<svg xmlns="http://www.w3.org/2000/svg" width="24" height="24" fill="none" viewBox="0 0 24 24"><g clip-path="url(#a)"><path fill="currentColor" fill-rule="evenodd" d="M2 12.006C2 6.49 6.49 2 12.006 2 17.51 2 22.01 6.49 22.01 12.006c0 5.515-4.49 10.005-10.005 10.005S2 17.521 2 12.006m8.97 2.507 4.478-6.663.023-.012a.84.84 0 0 1 1.159-.222c.378.256.479.78.222 1.158l-4.858 7.232c-.2.3-.512.479-.858.512h-.089a1.14 1.14 0 0 1-.835-.368l-2.964-3.22a.82.82 0 0 1 .044-1.18.84.84 0 0 1 1.181.044z" clip-rule="evenodd"/></g><defs><clipPath id="a"><path fill="currentColor" d="M0 0h24v24H0z"/></clipPath></defs></svg>
